X:1
T:Title
%%score { ( 1 3 ) | ( 2 4 ) }
L:1/8
M:4/4
K:Bb
V:1 treble nm="Grand Piano"
V:3 treble 
V:2 bass 
V:4 bass 
V:1
 z4[Q:1/4=100] DE=EF | [DG]2 [B,DF]2 [Ge]2 [Fd]2 | [Ec]2 [G,CEG]2 GBAG | %3
 [FA]2 [A,EFA]2 [Ge]2 [Ae]2 |[M:2/4] [Bd]4 | DE =EF |[M:4/4] [DG]2 [B,DF]2 [Ge]2 [Fd]2 | %7
 [Ec]2 [G,CEG]2 [_DG]BAG | [DF]2 [Fd]2 [EF]2 [Ec]2 |[M:2/4] [DB]4 | dd dd | %11
[M:4/4] [Gd]2 [Gd]2 [Bd]2 [Bd]2 | [Ae]4 z4 | [Ae]2 [Ae]2 [Ge]2 [Ge]2 |[M:2/4] [Fd]4 | dd dd | %16
[M:4/4] [Gd]2 [Gd]2 [B_d]2 [_DFBd]2 | [Ac]4 z4 | [Ac]2 [B,C=EGB]2 [DB]2 [B,CEB]2 |[M:2/4] [FA]4 | %20
 dd dd |[M:4/4] [Gd]2 [Gd]2 [Bd]2 [Bd]2 | [Ae]4 z4 | [Ae]2 [Ae]2 [Ge]2 [Ge]2 |[M:2/4] [Fd]4 | %25
 dd dd |[M:4/4] [Bd]2 [Bd]2 [_Af]2 [Af]2 | [Ge]4 z4 | [Fd]2 [Bd]2 [Fe]2 [ce]2 | %29
[M:5/8] [Bd]-[Bd]- [Bd]3 |] %30
V:2
 z4 B,C_D=D | B,,2 F,2 G,,2 [F,G,=B,]2 | C,,2 E,2[K:treble] EGFE | F,,2 F,2 F,,2 [F,A,E]2 | %4
[M:2/4] B,,2 F,2 | B,C _D=D |[M:4/4] B,,2 F,2 G,,2 [F,G,=B,]2 | C,,2 E,2 z _DDD | %8
 F,,2 [F,B,]2 F,,2 [F,A,]2 |[M:2/4] [B,,F,B,]4 | FB AF | %11
[M:4/4][K:bass] B,,2 [F,B,D]2 D,2 [F,B,D]2 | C,2 F,2[K:treble] AcBG | F,,2 [F,A,E]2 A,,2 [F,A,E]2 | %14
[M:2/4] B,,2 F,2 | FB AF |[M:4/4][K:bass] B,,2 [F,B,D]2 G,,2 G,2 | C,2 A,2[K:treble] ABAF | %18
 C,,2 G,2 C,,2 G,2 |[M:2/4] F,,2 F,2 | FB AF |[M:4/4][K:bass] B,,2 [F,B,D]2 D,2 [F,B,D]2 | %22
 C,2 F,2[K:treble] AcBG | F,,2 [F,A,E]2 A,,2 [F,A,E]2 |[M:2/4] B,,2 F,2 | FF GA | %26
[M:4/4][K:bass] B,,2 [F,B,D]2 D,2 B,2 | E,,2 G,2[K:treble] cBAG | F,,2 [F,B,D]2 F,,2 [F,A,E]2 | %29
[M:5/8] B,,2 F,3 |] %30
V:3
 x8 | x8 | x8 | x8 |[M:2/4] z2 [B,D]2 | x4 |[M:4/4] x8 | x8 | x8 |[M:2/4] x4 | x4 |[M:4/4] x8 | %12
 z2 [A,E]2 eeee | x8 |[M:2/4] z2 [B,D]2 | x4 |[M:4/4] x8 | z2 [CF]2 cdcA | x8 |[M:2/4] z2 [A,C]2 | %20
 x4 |[M:4/4] x8 | z2 [A,E]2 eeee | x8 |[M:2/4] z2 [B,D]2 | x4 |[M:4/4] x8 | z2 [B,E]2 eeee | x8 | %29
[M:5/8] z2 [B,D]3 |] %30
V:4
 x8 | x8 | x4[K:treble] x4 | x8 |[M:2/4] x4 | x4 |[M:4/4] x8 | z4 =E,,2 [=E,G,B,]2 | x8 | %9
[M:2/4] x4 | x4 |[M:4/4][K:bass] x8 | x4[K:treble] x4 | x8 |[M:2/4] x4 | x4 |[M:4/4][K:bass] x8 | %17
 x4[K:treble] x4 | x8 |[M:2/4] x4 | x4 |[M:4/4][K:bass] x8 | x4[K:treble] x4 | x8 |[M:2/4] x4 | %25
 x4 |[M:4/4][K:bass] x8 | x4[K:treble] x4 | x8 |[M:5/8] x5 |] %30

